icons/tool.svg

<svg width="24" height="24" viewBox="0 0 24 24" fill="none" xmlns="http://www.w3.org/2000/svg">
<path fill-rule="evenodd" clip-rule="evenodd" d="M13.7265 2.09983C15.1393 1.85743 16.5925 2.059 17.886 2.67676C18.1789 2.81667 18.3857 3.09007 18.4406 3.41003C18.4955 3.72999 18.3917 4.05668 18.1621 4.28624L14.9948 7.45353V9.00519H16.5465L19.7138 5.8379C19.9433 5.60834 20.27 5.50451 20.59 5.5594C20.9099 5.6143 21.1833 5.8211 21.3232 6.11404C21.941 7.40754 22.1426 8.86074 21.9002 10.2735C21.6578 11.6863 20.9833 12.9893 19.9697 14.0029C18.9561 15.0165 17.6532 15.6909 16.2404 15.9333C15.0656 16.1349 13.8628 16.0294 12.7471 15.633L7.28723 21.0929C6.7064 21.6737 5.91862 22 5.09719 22C4.27576 22 3.48798 21.6737 2.90715 21.0929C2.32631 20.512 2 19.7242 2 18.9028C2 18.0814 2.32631 17.2936 2.90715 16.7128L8.36704 11.2529C7.97056 10.1372 7.86513 8.93443 8.0667 7.75958C8.3091 6.34678 8.98354 5.04387 9.99714 4.03027C11.0107 3.01667 12.3137 2.34223 13.7265 2.09983ZM15.5735 4.0464C15.0752 3.97756 14.5663 3.98495 14.0647 4.07103C13.0595 4.24349 12.1325 4.72333 11.4114 5.44448C10.6902 6.16563 10.2104 7.09262 10.0379 8.09779C9.86544 9.10296 10.0088 10.1369 10.4484 11.0572C10.631 11.4396 10.5528 11.8956 10.2531 12.1952L4.32136 18.127C4.1156 18.3327 4 18.6118 4 18.9028C4 19.1938 4.1156 19.4729 4.32136 19.6786C4.52712 19.8844 4.8062 20 5.09719 20C5.38818 20 5.66725 19.8844 5.87302 19.6786L11.8048 13.7469C12.1044 13.4472 12.5604 13.369 12.9428 13.5516C13.8631 13.9912 14.897 14.1346 15.9022 13.9621C16.9074 13.7896 17.8344 13.3098 18.5555 12.5886C19.2767 11.8675 19.7565 10.9405 19.929 9.93534C20.015 9.43365 20.0224 8.9248 19.9536 8.42649L17.6678 10.7123C17.4803 10.8998 17.2259 11.0052 16.9607 11.0052H13.9948C13.4425 11.0052 12.9948 10.5575 12.9948 10.0052V7.03932C12.9948 6.7741 13.1002 6.51974 13.2877 6.33221L15.5735 4.0464Z" fill="black"/>
</svg>

<svg
  width="24"
  height="24"
  viewBox="0 0 24 24"
  xmlns="http://www.w3.org/2000/svg"
>
  <path
    fill-rule="evenodd"
    clip-rule="evenodd"
    d="M13.726 2.1a6.932 6.932 0 0 1 4.16.577 1 1 0 0 1 .276 1.61l-3.167 3.167v1.551h1.552l3.167-3.167a1 1 0 0 1 1.61.276 6.931 6.931 0 0 1-8.577 9.519l-5.46 5.46a3.097 3.097 0 0 1-4.38-4.38l5.46-5.46a6.932 6.932 0 0 1 5.36-9.153zm1.847 1.946a4.93 4.93 0 0 0-5.125 7.011 1 1 0 0 1-.195 1.138l-5.932 5.932a1.097 1.097 0 1 0 1.552 1.552l5.932-5.932a1 1 0 0 1 1.138-.195 4.93 4.93 0 0 0 7.01-5.126l-2.285 2.286a1 1 0 0 1-.707.293h-2.966a1 1 0 0 1-1-1V7.04a1 1 0 0 1 .293-.707l2.285-2.286z"
  />
</svg>
